X:1
C:Traditional
S:Ewan McColl and Peggy Seeger
K:Ddor
M:4/4
L:1/8
A,A, | D>E DC A,G, A,C | F2 ED E2 A,A, | D>E DC A,G, A,C | D6 AA | A>G AB c2 BA |
GF EF G2 FG | AG FD A2 A,A, | DC DE FE FG | AG FD A2 A,A, | D6 :|
